X:1
T:Title
%%score { ( 1 4 ) | ( 2 3 ) }
L:1/8
Q:1/4=100
M:6/8
K:Eb
V:1 treble nm="Grand Piano"
V:4 treble 
V:2 bass 
V:3 bass 
V:1
 G2 F E2 F | G2 [FA] .[GB]3 | G2 G GA[EGB] | [EAc]3 .[EGB]3 | G2 F E2 F | G2 [FA] [GB]3 | %6
w: W.~McDonald * * *||||||
 [Ac]2 [Ae] [GB]2 [EG] | [DF]3 .E3 | G2 G G3 | B2 B B3 | c2 c A2 c | [GB]3 .G3 | G2 F z FG | %13
w: |||||||
[M:15/16] A->ABc3/2- c3 |[M:3/4] B2 GB A[A,DF] | [A,DF]3 [G,E]3 |] %16
w: |||
V:2
 [E,B,E]2 [E,B,D] [E,G,]2 [E,A,E] | [E,B,E]2 [E,B,] .[E,E]3 | z3 .E3 | A,3 .E,3 | %4
 [E,B,E]2 [E,B,D] [E,G,]2 [E,A,E] | [E,B,E]2 [E,B,] [E,E]3 | [A,E]2 [A,C] [E,E]2 [E,B,] | %7
 [B,,A,]3 .[E,G,]3 | [E,B,E]2 [E,B,E] [E,B,E]3 | [E,G,E]2 [E,G,E] [E,G,E]3 | %10
 [A,E]2 [A,E] [A,CE]2 [A,EA] | [E,E]3 .[E,B,E]3 | [E,B,E]2 [E,B,D] E,-[E,A,][E,B,E] | %13
[M:15/16][K:treble] [A,CE]->[A,CE][A,E][A,EA]3/2- [A,EA]3 | %14
[M:3/4] [B,EG]2[K:bass] [B,E]B,,- [B,,F,]B,, | B,,3 E,3 |] %16
V:3
 x6 | x6 | [E,B,E]2 [E,B,E] [E,B,]-[E,B,F]E, | x6 | x6 | x6 | x6 | x6 | x6 | x6 | x6 | x6 | %12
 z3 .G,3 |[M:15/16][K:treble] x15/2 |[M:3/4] z2[K:bass] z G, z2 | x6 |] %16
V:4
 x6 | x6 | x6 | x6 | x6 | x6 | x6 | x6 | x6 | x6 | x6 | x6 | z3 .E3 |[M:15/16] x15/2 | %14
[M:3/4] z2 z .D3 | x6 |] %16

